X: 6203
T: Caribou, The
R: reel
M: 4/4
K: Edorian
A|:BEED EFGA|B2ED EF G/F/E|DDFD DADD|BDDA DDFD|
E2 ED EFGA|Bdef g2fg|afge fdec|1 AG F/E/D E2Bc:|2 AG F/E/D E2 cA||
|:Be2d efed|Bd e/f/g fedc|Bd2c d3e|fa f/e/d edBA|
Be2d efed|Bdef g2fg|afge f2ec|1 dB AG/F/ E2 cA:|2 dB AG/F/ E2 Bc||

